icons/css.svg

<?xml version="1.0" encoding="UTF-8"?>
<svg width="32pt" height="32pt" version="1.0" viewBox="0 0 32 32" xmlns="http://www.w3.org/2000/svg">
    <g>
        <path d="m4.7031 28.531l-2.5117-28.191h27.617l-2.5156 28.188-11.309 3.1367z" fill="#1471b5" />
        <path d="m16 29.266l9.1406-2.5352 2.1484-24.09h-11.289z" fill="#33a9dc" />
        <path d="m16 12.855h4.5742l0.31641-3.5391h-4.8906v-3.457h8.6719l-0.085937 0.92578-0.84766 9.5312h-7.7383z"
            fill="#fff" />
        <path
            d="m16.02 21.836l-0.015625 0.003906-3.8477-1.0391-0.24609-2.7578h-3.4727l0.48438 5.4297 7.082 1.9648 0.015625-0.003906z"
            fill="#ebebeb" />
        <path d="m20.281 16.168l-0.41406 4.6328-3.8594 1.0391v3.5977l7.0898-1.9648 0.050782-0.58203 0.60156-6.7227z"
            fill="#fff" />
        <path
            d="m16.012 5.8594v3.457h-8.3516l-0.070312-0.77734-0.15625-1.7539-0.082032-0.92578zm-0.011719 7v3.457h-3.8008l-0.070313-0.77734-0.15625-1.7539-0.085937-0.92578z"
            fill="#ebebeb" />
    </g>
</svg>

<?xml version="1.0" encoding="UTF-8"?>
<svg xmlns="http://www.w3.org/2000/svg" xmlns:xlink="http://www.w3.org/1999/xlink" width="32pt" height="32pt" viewBox="0 0 32 32" version="1.0">
    <g id="surface1">
        <path style=" stroke:none;fill-rule:nonzero;fill:rgb(8.235294%,44.705882%,71.372549%);fill-opacity:1;" d="M 4.703125 28.53125 L 2.191406 0.339844 L 29.808594 0.339844 L 27.292969 28.527344 L 15.984375 31.664062 Z M 4.703125 28.53125 " />
        <path style=" stroke:none;fill-rule:nonzero;fill:rgb(20%,66.27451%,86.27451%);fill-opacity:1;" d="M 16 29.265625 L 25.140625 26.730469 L 27.289062 2.640625 L 16 2.640625 Z M 16 29.265625 " />
        <path style=" stroke:none;fill-rule:nonzero;fill:rgb(100%,100%,100%);fill-opacity:1;" d="M 16 12.855469 L 20.574219 12.855469 L 20.890625 9.316406 L 16 9.316406 L 16 5.859375 L 24.671875 5.859375 L 24.585938 6.785156 L 23.738281 16.316406 L 16 16.316406 Z M 16 12.855469 " />
        <path style=" stroke:none;fill-rule:nonzero;fill:rgb(92.156863%,92.156863%,92.156863%);fill-opacity:1;" d="M 16.019531 21.835938 L 16.003906 21.839844 L 12.15625 20.800781 L 11.910156 18.042969 L 8.4375 18.042969 L 8.921875 23.472656 L 16.003906 25.4375 L 16.019531 25.433594 Z M 16.019531 21.835938 " />
        <path style=" stroke:none;fill-rule:nonzero;fill:rgb(100%,100%,100%);fill-opacity:1;" d="M 20.28125 16.167969 L 19.867188 20.800781 L 16.007812 21.839844 L 16.007812 25.4375 L 23.097656 23.472656 L 23.148438 22.890625 L 23.75 16.167969 Z M 20.28125 16.167969 " />
        <path style=" stroke:none;fill-rule:nonzero;fill:rgb(92.156863%,92.156863%,92.156863%);fill-opacity:1;" d="M 16.011719 5.859375 L 16.011719 9.316406 L 7.660156 9.316406 L 7.589844 8.539062 L 7.433594 6.785156 L 7.351562 5.859375 Z M 16 12.859375 L 16 16.316406 L 12.199219 16.316406 L 12.128906 15.539062 L 11.972656 13.785156 L 11.886719 12.859375 Z M 16 12.859375 " />
    </g>
</svg>
